!!!COM: Anthoni van Noordt
!!!OTL: Fantasia
!!!OMV: 
!!!SCT: 
!!!SCA: 
**kern	**kern	**kern	**kern
*MM120	*MM120	*MM120	*MM120
*d:dor	*d:dor	*d:dor	*d:dor
*clefF4	*clefF4	*clefG2	*clefG2
*k[]	*k[]	*k[]	*k[]
*M2/2	*M2/2	*M2/2	*M2/2
*tb32	*tb32	*tb32	*tb32
=1	=1	=1	=1
1r	1r	8r	1r
.	.	8d	.
.	.	8f	.
.	.	8g	.
.	.	8a	.
.	.	16g	.
.	.	16f	.
.	.	8e	.
.	.	8f	.
=2	=2	=2	=2
1r	1r	4g	1r
.	.	8d	.
.	.	8e	.
.	.	8f	.
.	.	16g	.
.	.	16f	.
.	.	4e	.
=3	=3	=3	=3
8r	1r	2d	1r
8D	.	.	.
8F	.	.	.
8G	.	.	.
8A	.	4r	.
16G	.	.	.
16F	.	.	.
8E	.	[4g	.
8F	.	.	.
=4	=4	=4	=4
4G	1r	8g]	1r
.	.	16a	.
.	.	16g	.
8D	.	8f	.
8E	.	8g	.
8F	.	8a	.
16G	.	8d	.
16F	.	.	.
4E	.	8.d	.
.	.	16c#	.
=5	=5	=5	=5
2D	1r	8d	1r
.	.	8e	.
.	.	8f	.
.	.	8g	.
4r	.	4a	.
[4G	.	4b-	.
=6	=6	=6	=6
8G]	1r	4.a	1r
16A	.	.	.
16G	.	.	.
8F	.	.	.
8G	.	16g	.
.	.	16f	.
8A	.	8e	.
8D	.	8d	.
8D.	.	4e	.
16C#	.	.	.
=7	=7	=7	=7
4D	1r	2f	8r
.	.	.	8a
8A	.	.	8cc
8B	.	.	8dd
4c	.	4r	8ee
.	.	.	16dd
.	.	.	16cc
8G	.	4g	8b
8A	.	.	8cc
=8	=8	=8	=8
8B	1r	8d	4dd
8c	.	8e	.
4d	.	8f	8a
.	.	8g	8b
4A	.	8a	8cc
.	.	4f	16dd
.	.	.	16cc
4G	.	.	4b
.	.	8e	.
=9	=9	=9	=9
2F	8r	4f	2a
.	8A	.	.
.	8c	8e	.
.	8d	8f	.
2r	8e	4g	4r
.	16d	.	.
.	16c	.	.
.	8B	8d	[4dd
.	8c	8e	.
=10	=10	=10	=10
1r	4d	8f	8dd]
.	.	8g	16ee
.	.	.	16dd
.	8A	4a	8cc
.	8B	.	8dd
.	8c	4e	8ee
.	16d	.	8a
.	16c	.	.
.	4B	4d	8.a
.	.	.	16g#
=11	=11	=11	=11
1r	2A	4c#	8a
.	.	.	8b
.	.	4.a	8cc
.	.	.	8dd
.	4r	.	4ee
.	.	8g	.
.	[4d	8f	4ff
.	.	16e	.
.	.	16f	.
=12	=12	=12	=12
1r	8d]	4g	4.ee
.	16e	.	.
.	16d	.	.
.	8c	4a	.
.	8d	.	16dd
.	.	.	16cc
.	8e	8g	8b
.	8A	8f	8a
.	8.A	4e	4b
.	16G#	.	.
=13	=13	=13	=13
4r	8A	1a	4cc
.	8B	.	.
4.A	8c	.	8ee
.	8d	.	8dd
.	4e	.	4cc#
8G	.	.	.
8F	4f	.	[4dd
16E	.	.	.
16D	.	.	.
=14	=14	=14	=14
4A	4.e	1r	8dd]
.	.	.	16cc
.	.	.	16b
4A	.	.	8cc
.	16d	.	8dd
.	16c	.	.
4G#	8B	.	4ee
.	8A	.	.
4G#	4B	.	4dd
=15	=15	=15	=15
8A	2c	8r	1cc
8G	.	8e	.
8F	.	8f	.
8E	.	8g	.
4F	4r	8a	.
.	.	16g	.
.	.	16f	.
8C	4c	8e	.
8D	.	8f	.
=16	=16	=16	=16
8E	8G	4g	1r
8F	8A	.	.
4G	8B	8d	.
.	8c	8e	.
2D	4.d	8f	.
.	.	16g	.
.	.	16f	.
.	.	4e	.
.	8c	.	.
=17	=17	=17	=17
8r	4B-	16d	1r
.	.	16e	.
8D	.	16f	.
.	.	16g	.
8F	8A	4a	.
8G	8B	.	.
8A	8c	8e	.
16G	8d	8f	.
16F	.	.	.
8E	4e	4g	.
8F	.	.	.
=18	=18	=18	=18
4G	8B	8d	1r
.	8c	8e	.
8D	4d	8f	.
8E	.	8g	.
8F	8A	4a	.
16G	4d	.	.
16F	.	.	.
4E	.	4g	.
.	8c#	.	.
=19	=19	=19	=19
16D	4d	4f	8r
16E	.	.	.
16F	.	.	8a
16G	.	.	.
4A	4c	8e	8cc
.	.	8f	8dd
8E	2B	4g	8ee
8F	.	.	16dd
.	.	.	16cc
4G	.	4g	8b
.	.	.	8cc
=20	=20	=20	=20
8D	2A	4f	4dd
8E	.	.	.
4F	.	8c	8a
.	.	8d	8b
4C	2r	4e	8cc
.	.	.	16dd
.	.	.	16cc
8D	.	4d	4b
8E	.	.	.
=21	=21	=21	=21
8F	1r	4c	1a
16G	.	.	.
16F	.	.	.
8E	.	4d	.
8D	.	.	.
8C#	.	8e	.
4D	.	8f	.
.	.	8g	.
8C#	.	8e	.
=22	=22	=22	=22
4D	8r	4f	1r
.	8A	.	.
4A	8c	8e	.
.	8d	8f	.
4E	8e	4.g	.
.	16d	.	.
.	16c	.	.
4G	8B	.	.
.	8c	8g	.
=23	=23	=23	=23
8D	4d	8f	1r
8E	.	8g	.
8F	8A	4a	.
8G	8B	.	.
4A	8c	8e	.
.	16d	8a	.
.	16c	.	.
4E	4B	8g#	.
.	.	16f#	.
.	.	16g#	.
=24	=24	=24	=24
4F	2.A	8a	2r
.	.	16g	.
.	.	16f	.
4C#	.	16e	.
.	.	16f	.
.	.	16g	.
.	.	16e	.
2D	.	8f	4r
.	.	8a	.
.	4B	8g	4dd
.	.	8f	.
=25	=25	=25	=25
1A	2.c	4e	8ee
.	.	.	16dd
.	.	.	16cc
.	.	4d	16b
.	.	.	16cc
.	.	.	16dd
.	.	.	16b
.	.	4e	8cc
.	.	.	8ee
.	4d	4f#	8dd
.	.	.	8cc
=26	=26	=26	=26
1r	8e	2.g	4b
.	16d	.	.
.	16c	.	.
.	16B	.	4dd
.	16c	.	.
.	16d	.	.
.	16B	.	.
.	8c	.	2ee
.	8e	.	.
.	8d	4a	.
.	8c	.	.
=27	=27	=27	=27
8G	4g	2b-	2dd
16F	.	.	.
16E	.	.	.
16D	2f	.	.
16E	.	.	.
16F	.	.	.
16D	.	.	.
8F	.	2a	2cc
8A	.	.	.
8G	4e	.	.
8F	.	.	.
=28	=28	=28	=28
2G	4d	8g	2b-
.	.	8a	.
.	8e	8g	.
.	8d	8f	.
2A	8c#	8e	2a
.	4d	8f	.
.	.	8g	.
.	8c#	8e	.
=29	=29	=29	=29
8r	2d	2f	4r
8D	.	.	.
8F	.	.	2a
8G	.	.	.
8A	2c	2e	.
16G	.	.	.
16F	.	.	.
8E	.	.	[4g
8F	.	.	.
=30	=30	=30	=30
4G	4B	4d	8g]
.	.	.	8g
8D	2A	4.d	8f
8E	.	.	8g
8F	.	.	4a
16G	.	8d	.
16F	.	.	.
4E	8B	4e	4g
.	8c#	.	.
=31	=31	=31	=31
4D	4d	8A	8f
.	.	8f	8a
4r	8A	4.e	8cc
.	8B	.	8dd
2r	8c	.	8ee
.	8d	8f#	16dd
.	.	.	16cc
.	8e	[4g	8b
.	16d	.	8cc
.	16c	.	.
=32	=32	=32	=32
1r	8B	8g]	4dd
.	8c	8g	.
.	4d	4f	8a
.	.	.	8b
.	4A	4e	8cc
.	.	.	16dd
.	.	.	16cc
.	8B	4g	4b
.	8c	.	.
=33	=33	=33	=33
4r	8d	8f	1a
.	16e	16g	.
.	16d	16f	.
4.A	8c#	8e	.
.	8B	8d	.
.	4c#	4e	.
8G	.	.	.
8F	4d	4r	.
8E	.	.	.
=34	=34	=34	=34
4F	2A	8r	4r
.	.	8d	.
8D	.	8f	4dd
8E	.	8g	.
8F	2r	8a	4.cc
8G	.	16g	.
.	.	16f	.
8A	.	8e	.
16G	.	8f	8dd
16F	.	.	.
=35	=35	=35	=35
8E	1r	4g	8ee
8F	.	.	16dd
.	.	.	16cc
4G	.	8d	8b
.	.	8e	8cc
4D	.	8f	4dd
.	.	16g	.
.	.	16f	.
8A	.	4e	[4cc
8G	.	.	.
=36	=36	=36	=36
4F#	1r	4.d	8cc]
.	.	.	16dd
.	.	.	16cc
4.G	.	.	4b
.	.	16e	.
.	.	16d	.
.	.	4c#	2a
16A	.	.	.
16G	.	.	.
8F	.	4d	.
16G	.	.	.
16F	.	.	.
=37	=37	=37	=37
4.E	8r	4e	4g#
.	8B	.	.
.	8c	4r	8a
8D	8d	.	8b
4C	8e	4r	4cc
.	16d	.	.
.	16c	.	.
4G	8B	4g	[4dd
.	8c	.	.
=38	=38	=38	=38
8D	4d	8f#	8dd]
8E	.	8g	8dd
4F	8A	4a	8cc
.	8B	.	8dd
2E	8c	8g#	4.ee
.	16d	8f#	.
.	16c	.	.
.	4B	4g#	.
.	.	.	8dd
=39	=39	=39	=39
4F	2A	[2a	8cc
.	.	.	8dd
4C	.	.	8ee
.	.	.	8cc
8D	4r	8a]	2ff
8E	.	8g	.
8F	4d	8a	.
8D	.	8b	.
=40	=40	=40	=40
4A	8c	4.cc	2ee
.	8d	.	.
4A	8e	.	.
.	8c	8cc	.
8F	4.f	8a	2dd
8G	.	8b	.
8A	.	8cc	.
8F	8f	8a	.
=41	=41	=41	=41
8G	8d	8b-	1r
8A	8c	16a	.
.	.	16g	.
4B-	4.d	8f	.
.	.	8g	.
4F	.	2a	.
.	8e	.	.
[4D	8f	.	.
.	8d	.	.
=42	=42	=42	=42
4D]	8f	4r	1r
.	16e	.	.
.	16d	.	.
8A	8c	4a	.
8B	8d	.	.
4c	4e	8g	.
.	.	8a	.
4G	[4d	8b	.
.	.	8g	.
=43	=43	=43	=43
8B	8d]	8dd	1r
8c	8e	16cc	.
.	.	16b	.
4d	8f	8a	.
.	8g	8b	.
8A	4a	4.cc	.
8B	.	.	.
8c	8e	.	.
8A	8f#	8cc	.
=44	=44	=44	=44
8e	4.g	4b	1r
16d	.	.	.
16c	.	.	.
8B	.	4.dd	.
8c	8g	.	.
4d	8f	.	.
.	8e	16cc	.
.	.	16b	.
4d	[4f	8a	.
.	.	8b	.
=45	=45	=45	=45
4.A	8f]	[2cc	1r
.	16e	.	.
.	16d	.	.
.	8c	.	.
8B	8d	.	.
4c	8e	8cc]	.
.	8d	16b	.
.	.	16a	.
4c	8e	8g	.
.	8f#	8a	.
=46	=46	=46	=46
4G	4g	2b-	8dd
.	.	.	8ee
2d	2f	.	8ff
.	.	.	8dd
.	.	2a	8ff
.	.	.	16ee
.	.	.	16dd
8A	[4e	.	8cc
8B	.	.	8dd
=47	=47	=47	=47
4c	8e]	1r	4ee
.	8f	.	.
4B	8g	.	4dd
.	8d	.	.
8A	8a	.	2cc
8E	16g	.	.
.	16f	.	.
8C	8e	.	.
8D	8f	.	.
=48	=48	=48	=48
4E	2g	1r	8b
.	.	.	8cc
4B	.	.	8dd
.	.	.	8b
4c	4r	.	8ee
.	.	.	16dd
.	.	.	16cc
8G	4g	.	8b
8A	.	.	8cc
=49	=49	=49	=49
4B-	2.d	8f	1dd
.	.	8g	.
4F	.	8a	.
.	.	8f	.
4G	.	8b-	.
.	.	16a	.
.	.	16g	.
4D	8d	8f	.
.	8e	8g	.
=50	=50	=50	=50
1r	4f	2.a	8dd
.	.	.	8ee
.	4d	.	8ff
.	.	.	8dd
.	2c	.	8aa
.	.	.	16gg
.	.	.	16ff
.	.	8g	8ee
.	.	8a	8ff
=51	=51	=51	=51
8G	2d	2b-	2.gg
8A	.	.	.
8B-	.	.	.
8G	.	.	.
8d	2r	2a	.
16c	.	.	.
16B-	.	.	.
8A	.	.	4ff
8B-	.	.	.
=52	=52	=52	=52
2c	1r	8g	2ff
.	.	8a	.
.	.	8b-	.
.	.	8g	.
2C	.	8cc	2ee
.	.	16b-	.
.	.	16a	.
.	.	8g	.
.	.	8b-	.
=53	=53	=53	=53
2F	8c	2.a	2.ff
.	8d	.	.
.	8e	.	.
.	8c	.	.
2r	8f	.	.
.	16e	.	.
.	16d	.	.
.	8c	4a	8ee
.	8d	.	8dd
=54	=54	=54	=54
1r	4e	2g	8cc
.	.	.	8dd
.	4c	.	8ee
.	.	.	8cc
.	2B-	2d	8gg
.	.	.	16ff
.	.	.	16ee
.	.	.	8dd
.	.	.	8ee
=55	=55	=55	=55
8D	2A	2a	2ff
8E	.	.	.
8F	.	.	.
8D	.	.	.
8d	4.f	2r	2dd
16c	.	.	.
16B	.	.	.
8A	.	.	.
8B	8f	.	.
=56	=56	=56	=56
4c	4e	8a	1r
.	.	8b	.
4A	4e	8cc	.
.	.	8a	.
4.F	4A	8dd	.
.	.	16cc	.
.	.	16b	.
.	4f	8a	.
8G	.	8b	.
=57	=57	=57	=57
1A	4e	4cc#	8ee
.	.	.	8ff
.	4d	2dd	8gg
.	.	.	8ee
.	2e	.	8aa
.	.	.	16gg
.	.	.	16ff
.	.	4cc#	8ee
.	.	.	8gg
=58	=58	=58	=58
1D	1d	2dd	1ff#
.	.	4r	.
.	.	4a	.
=59	=59	=59	=59
1r	8r	4dd	1r
.	8d	.	.
.	8f	4dd	.
.	8g	.	.
.	8a	4cc#	.
.	16g	.	.
.	16f	.	.
.	8e	4cc	.
.	8f	.	.
=60	=60	=60	=60
1r	4g	4b	1r
.	8d	4b-	.
.	8e	.	.
.	8f	8a	.
.	16g	8dd	.
.	16f	.	.
.	4e	4cc#	.
=61	=61	=61	=61
2r	8d	4dd	1r
.	8e	.	.
.	8f	8a	.
.	8g	8b	.
4r	4.a	8cc	.
.	.	8dd	.
4A	.	8cc	.
.	8g	8b	.
=62	=62	=62	=62
4d	4f	2a	8r
.	.	.	8dd
4d	4f	.	8ff
.	.	.	8gg
4c#	4e	2r	8aa
.	.	.	16gg
.	.	.	16ff
4c	4g	.	8ee
.	.	.	8ff
=63	=63	=63	=63
4B	4d	1r	4gg
4B-	8f	.	8dd
.	8g	.	8ee
8A	4a	.	8ff
8d	.	.	16gg
.	.	.	16ff
4c#	8r	.	4ee
.	8e	.	.
=64	=64	=64	=64
4d	8f	1r	4dd
.	8g	.	.
8A	4a	.	8cc
8B	.	.	8dd
8c	8g	.	4.ee
8d	8f	.	.
8c	4e	.	.
8B	.	.	8dd
=65	=65	=65	=65
8A	4.a	2r	8cc#
8G	.	.	8b
8F	.	.	4cc#
8E	8g	.	.
2D	2f	4r	8dd
.	.	.	16cc
.	.	.	16b
.	.	4d	8a
.	.	.	8b
=66	=66	=66	=66
8r	1r	4a	4cc
8A	.	.	.
8c	.	4a	4cc
8d	.	.	.
8e	.	4g#	4b
16d	.	.	.
16c	.	.	.
8B	.	4g	4dd
8c	.	.	.
=67	=67	=67	=67
4d	1r	4f#	8a
.	.	.	8b
8A	.	4f	8cc
8B	.	.	8dd
8c	.	8e	4.ee
16d	.	8a	.
16c	.	.	.
4B	.	4g#	.
.	.	.	8dd
=68	=68	=68	=68
4.A	2r	2a	8cc
.	.	.	8b
.	.	.	8cc
8B	.	.	8dd
4c	4r	2r	8ee
.	.	.	16dd
.	.	.	16cc
4G#	4e	.	16b
.	.	.	16cc
.	.	.	16dd
.	.	.	16b
=69	=69	=69	=69
4A	4a	8r	2cc
.	.	8a	.
4F	4a	8cc	.
.	.	8dd	.
4E	4g#	8ee	2r
.	.	16dd	.
.	.	16cc	.
4G	4g	8b	.
.	.	8cc	.
=70	=70	=70	=70
8D	4f#	4dd	2r
8E	.	.	.
8F	4f	8a	.
8G	.	8b	.
4A	8e	8cc	4r
.	8a	16dd	.
.	.	16cc	.
4E	4g#	4b	4ee
=71	=71	=71	=71
4F	8a	4.a	4aa
.	8A	.	.
4F	8c	.	4aa
.	8d	8b	.
4E	8e	8cc	4gg#
.	16d	8dd	.
.	16c	.	.
4G	8B	4ee	4gg
.	8c	.	.
=72	=72	=72	=72
8D	4d	8b	4ff#
8E	.	8cc	.
8F	8A	4dd	4ff
8G	8B	.	.
4A	8c	4a	8ee
.	16d	.	8aa
.	16c	.	.
8E	4B	8b	[4gg
8D	.	16cc	.
.	.	16dd	.
=73	=73	=73	=73
4C#	4.A	16ee	4gg]
.	.	16dd	.
.	.	16cc	.
.	.	16b	.
4D	.	4.a	4ff
.	8B	.	.
4r	8c	.	2ee
.	16d	16b	.
.	16c	16a	.
4E	4B	4g#	.
=74	=74	=74	=74
4A	8c	8e	1r
.	8d	8a	.
4A	4e	8cc	.
.	.	8dd	.
4G#	8B	8ee	.
.	8c	16dd	.
.	.	16cc	.
4G	4d	8b	.
.	.	8cc	.
=75	=75	=75	=75
4F#	8A	4dd	1r
.	8B	.	.
4F	8c	8a	.
.	8d	8b	.
8E	4.e	8cc	.
8A	.	16dd	.
.	.	16cc	.
4G#	.	4b	.
.	8d	.	.
=76	=76	=76	=76
4A	4c#	4a	8r
.	.	.	8ee
4D	8d	4.a	8ff
.	8e	.	8gg
2r	8f	.	8aa
.	16e	8b	16gg
.	16d	.	16ff
.	8c	8cc	8ee
.	16B-	8dd	8ff
.	16A	.	.
=77	=77	=77	=77
1r	4G	8ee	4gg
.	.	16dd	.
.	.	16cc	.
.	8g	8b	8dd
.	16f	8cc	8ee
.	16e	.	.
.	16d	4.dd	8ff
.	16c	.	.
.	16B-	.	16gg
.	16A	.	16ff
.	8G	.	4ee
.	8A	8cc#	.
=78	=78	=78	=78
8r	4r	4dd	4dd
8D	.	.	.
8F	4f	4a	4dd
8G	.	.	.
8A	4e	4a	4cc#
16G	.	.	.
16F	.	.	.
8E	4e	4g	4cc
8F	.	.	.
=79	=79	=79	=79
4G	4d	4g	4b
8D	2d	4f	4b-
8E	.	.	.
8F	.	4f	8a
16G	.	.	8dd
16F	.	.	.
4E	4e	8g	4cc#
.	.	8a	.
=80	=80	=80	=80
2D	2f	4b-	8dd
.	.	.	8cc
.	.	4a	8dd
.	.	.	8ee
2d	4r	8a	4ff
.	.	8g	.
.	4f	8a	4ff
.	.	8b	.
=81	=81	=81	=81
8r	4a	2cc	2ee
8A	.	.	.
8c	4a	.	.
8d	.	.	.
8e	4g#	2b	4r
16d	.	.	.
16c	.	.	.
8B	4g	.	[4dd
8c	.	.	.
=82	=82	=82	=82
4d	4f#	2a	8dd]
.	.	.	8dd
8A	4f	.	2cc
8B	.	.	.
8c	8e	4r	.
16d	8a	.	.
16c	.	.	.
4B	4g#	4d	8dd
.	.	.	8ee
=83	=83	=83	=83
1A	1a	8c#	4ff
.	.	4d	.
.	.	.	4.ee
.	.	8c#	.
.	.	4f	.
.	.	.	4dd
.	.	4e	.
.	.	.	8cc#
=84	=84	=84	=84
2D	8r	4.f	4dd
.	8A	.	.
.	8d	.	4dd
.	8e	8g	.
2r	8f	8a	8cc
.	16e	8b	8dd
.	16d	.	.
.	8c	[4cc	8ee
.	8d	.	8ff
=85	=85	=85	=85
2r	4e	8cc]	4gg
.	.	8g	.
.	8A	4a	8cc
.	8B	.	8dd
4A	8c	2e	8ee
.	16d	.	8a
.	16c	.	.
4E	4B	.	4g#
=86	=86	=86	=86
4F	4A	8r	2a
.	.	8d	.
8D	8d	8f	.
8E	16c	8g	.
.	16B	.	.
8F	8A	8a	2r
8G	8B	16g	.
.	.	16f	.
8A	8c	8e	.
16G	8d	8f	.
16F	.	.	.
=87	=87	=87	=87
8E	8e	4g	1r
8F	16d	.	.
.	16c	.	.
8G	8B	8d	.
16F	8c	8e	.
16E	.	.	.
4D	4d	8f	.
.	.	16g	.
.	.	16f	.
8A	4c#	4e	.
8G	.	.	.
=88	=88	=88	=88
4F	4d	4d	8r
.	.	.	8a
8E	4G	8e	8cc
8D	.	8f	8dd
8C	2r	8g	8ee
8F	.	8a	16dd
.	.	.	16cc
8G	.	4g	8b
8A	.	.	8cc
=89	=89	=89	=89
8B-	2r	2f	4dd
16A	.	.	.
16G	.	.	.
8F	.	.	8a
8G	.	.	8b
4A	8r	2r	8cc
.	8c	.	16dd
.	.	.	16cc
4G	8d	.	4b
.	8e	.	.
=90	=90	=90	=90
8d	8f	2r	2a
8D	16e	.	.
.	16d	.	.
8A	8c	.	.
8B	8d	.	.
8c	8e	8r	2r
16B	8f#	8a	.
16A	.	.	.
8G	4g	8b	.
8A	.	8cc	.
=91	=91	=91	=91
8B-	8r	8dd	1r
8c	8e	16cc	.
.	.	16b	.
4d	8f	8a	.
.	8g	8b	.
8r	8a	2cc	.
8A	16g	.	.
.	16f	.	.
8c	8e	.	.
8d	8f	.	.
=92	=92	=92	=92
8e	4g	2b	1r
16d	.	.	.
16c	.	.	.
8B	8d	.	.
8c	8e	.	.
4d	8f	4a	.
.	16g	.	.
.	16f	.	.
8G	4e	8b	.
8A	.	8cc	.
=93	=93	=93	=93
8B-	8d	4.dd	1r
16c	8e	.	.
16B-	.	.	.
4A	4f#	.	.
.	.	8cc	.
8G	8g	4b-	.
8A	16f	.	.
.	16e	.	.
8B-	8d	4b-	.
8c	8e	.	.
=94	=94	=94	=94
4d	4f	4a	8r
.	.	.	8dd
4B-	8r	4dd	8ff
.	8d	.	8gg
4F	8f	4cc	8aa
.	8g	.	16gg
.	.	.	16ff
4c	8a	[4cc	8ee
.	16g	.	8ff
.	16f	.	.
=95	=95	=95	=95
2G	8e	8cc]	4gg
.	8f	8cc	.
.	4g	4b-	8dd
.	.	.	8ee
2r	4d	2a	8ff
.	.	.	16gg
.	.	.	16ff
.	8c#	.	4ee
.	8A	.	.
=96	=96	=96	=96
8r	8f	1r	4dd
8D	4a	.	.
8F	.	.	8r
8G	8g	.	8b
8A	8e	.	8cc
16G	8f	.	8dd
16F	.	.	.
8E	4g	.	8ee
8F	.	.	16dd
.	.	.	16cc
=97	=97	=97	=97
4G	8d	4r	8b
.	8e	.	8cc
8D	4f	4a	4dd
8E	.	.	.
8F	2c	4f	8a
16G	.	.	8b
16F	.	.	.
4E	.	[4g	8cc
.	.	.	16dd
.	.	.	16cc
=98	=98	=98	=98
2D	2d	8g]	4b-
.	.	8g	.
.	.	8f	4a
.	.	8e	.
2r	8r	[2f	8r
.	8A	.	8cc
.	8B-	.	8dd
.	8c	.	8ee
=99	=99	=99	=99
4r	8d	8f]	8ff
.	8e	8g	16ee
.	.	.	16dd
8r	4f	8a	8cc
8D	.	8b	8dd
8C	4g	8cc	2ee
8D	.	16b	.
.	.	16a	.
8E	[4g	8g	.
8F	.	8a	.
=100	=100	=100	=100
8G	8g]	4b-	4dd
8A	16f	.	.
.	16e	.	.
4B-	8d	8f	2dd
.	8e	8g	.
2A	4f	8a	.
.	.	16b-	.
.	.	16a	.
.	4e	4g	4cc#
=101	=101	=101	=101
1d;	1d;	1f#;	1dd;
==	==	==	==
*-	*-	*-	*-
!!!ENC: Peter van Kranenburg (peter@musical-style-recognition.net)
!!!END: 2020-01-09
